X:1
T:Kiely's
R:jig
M:12/8
L:1/8
K:D
A|:d2e fed e2A ABA|def ~a2a ~g2g ~f2e|
|d2e fed e2A ABA|1 ~a2a gfe ded dBc:|2 ~a2a gfe ded dfe|]
|:~f2f fef ~g2g ~f2e|~f2f fed efe d2e|
|~f2f fef ~g2g gfg|1 ~a2f gfe ded dfe:|2 ~a2f gfe ded dBc|]